flaticon/productivity-and-development/tag-2.svg

<svg xmlns="http://www.w3.org/2000/svg" width="32" height="32" viewBox="0 0 24 24">
    <path d="M 16.898438 3.601562 C 14.96875 3.601562 13.402344 5.167969 13.402344 7.101562 C 13.402344 9.03125 14.96875 10.597656 16.898438 10.597656 C 18.832031 10.597656 20.398438 9.03125 20.398438 7.101562 C 20.398438 5.167969 18.832031 3.601562 16.898438 3.601562 Z M 16.898438 9.578125 C 15.53125 9.578125 14.425781 8.46875 14.425781 7.101562 C 14.425781 5.734375 15.53125 4.625 16.898438 4.625 C 18.269531 4.625 19.375 5.734375 19.375 7.101562 C 19.375 8.46875 18.269531 9.578125 16.898438 9.578125 Z M 16.898438 9.578125"/>
    <path d="M 23.367188 1.109375 C 23.351562 0.851562 23.148438 0.644531 22.886719 0.632812 L 12.066406 0 C 11.878906 0 11.726562 0.0703125 11.601562 0.226562 L 0.148438 11.675781 C -0.0507812 11.875 -0.0507812 12.199219 0.148438 12.398438 L 11.601562 23.851562 C 11.695312 23.945312 11.828125 24 11.960938 24 C 12.097656 24 12.226562 23.945312 12.324219 23.851562 L 23.773438 12.398438 C 23.925781 12.28125 24.003906 12.109375 24 11.929688 Z M 22.820312 11.910156 L 11.960938 22.765625 L 1.234375 12.039062 L 12.089844 1.179688 C 12.179688 1.101562 12.28125 1.042969 12.398438 1.042969 L 22.375 1.625 L 22.957031 11.601562 C 22.957031 11.730469 22.914062 11.816406 22.820312 11.910156 Z M 22.820312 11.910156"/>
    <path d="M 9.753906 9.472656 L 5.425781 13.796875 L 4.703125 13.078125 L 9.03125 8.75 Z M 11.777344 11.5 L 7.453125 15.824219 L 8.175781 16.546875 L 12.5 12.21875 Z M 10.203125 18.574219 L 10.921875 19.292969 L 15.25 14.96875 L 14.527344 14.246094 Z M 10.203125 18.574219"/>
</svg>

<svg xmlns="http://www.w3.org/2000/svg" width="32" height="32" viewBox="0 0 24 24">
    <path d="M16.898 3.602a3.498 3.498 0 1 0 .005 6.996 3.498 3.498 0 0 0-.005-6.996zm0 5.976a2.474 2.474 0 0 1-2.472-2.476 2.474 2.474 0 1 1 4.949 0 2.475 2.475 0 0 1-2.477 2.476zm0 0"/>
    <path d="M23.367 1.11a.504.504 0 0 0-.48-.477L12.067 0c-.188 0-.34.07-.465.227L.148 11.676c-.199.199-.199.523 0 .722l11.454 11.454a.515.515 0 0 0 .722 0l11.45-11.454A.57.57 0 0 0 24 11.93zm-.547 10.8L11.96 22.766 1.235 12.039 12.09 1.18a.476.476 0 0 1 .308-.136l9.977.582.582 9.977a.399.399 0 0 1-.137.308zm0 0"/>
    <path d="M9.754 9.473l-4.328 4.324-.723-.719L9.031 8.75zm2.023 2.027l-4.324 4.324.723.723 4.324-4.328zm-1.574 7.074l.719.719 4.328-4.324-.723-.723zm0 0"/>
</svg>
